X:1
T:9 Lieder und Gesänge, Op.63
T:An die Tauben
T:4. An die Tauben
T:Johannes Brahms
T:Max von Schenkendorf
T:9 Lieder und Gesänge, Op.63
T:OpenScore (CC0)
T:OpenScore (CC0)
T:OpenScore (CC0)
T:OpenScore (CC0)
T:OpenScore (CC0)
T:OpenScore (CC0)
T:OpenScore (CC0)
C:Johannes Brahms
Z:Max von Schenkendorf
Z:OpenScore (CC0)
%%score 1 { 2 | 3 }
L:1/8
Q:1/4=130
M:4/4
K:C
V:1 treble nm="Voice"
V:2 treble nm="Piano"
V:3 bass 
V:1
"^Sehr lebhaft""^(very lively)" z8 | z8 | E3 E G3 G | (ce) (dc) c2 G2 | G3 G d3 G | (dG) (de) c4 | %6
w: ||Fliegt nur aus, ge-|lieb- * te * Tau- ben!|Euch als Bo- ten|send * ich * hin;|
 E3 E G3 G | ((ce)) (dc) c2 ^F2 | d3 G _e3 c | _B3 _A G4 | d3 d (g4- | gf) (cf) e3 d | c4 z4 | z8 | %14
w: sagt ihr, und sie|wird * euch * glau- ben,|dass ich krank vor|Lie- be bin,|dass ich krank|* * vor * Lie- be|bin.||
 e3 d c2 A2 | e3 d c2 A2 | B2 d2 g3 ^c | e3 =c B4 | =f3 e d2 B2 | c3 B A2 ^F2 | G2 B2 e2 ^A2 | %21
w: Ihr könnt flie- gen,|Ihr könnt ei- len,|Tau- ben, froh berg-|ab und an;|ich muss in der|Frem- de wei- len,|e- wig ein ge-|
 =c3 B G4 | G2 c2 e2 g2 | =f6 ^d2 | e4 z4 | z8 | z8 | z8 | z8 | E3 E G3 G | (ce) (dc) c2 G2 | %31
w: qüal- ter Mann,|e- wig ein ge-|quäl- ter|Mann.|||||Auch mein Brief- lein|soll * noch * ge- hen|
 G3 G d3 G | (dG) (de) c4 | E3 E G3 G | (ce) (dc) c2 ^F2 | d3 G _e3 c | _B3 _A G4 | d3 d (g4- | %38
w: heut zu ihr, mein|Lie- * bes- * gruss,|soll sie su- chen|auf * den * Hö- hen,|an dem schö- nen,|grü- nen Fluss,|an dem schö-|
 gf) (cf) e3 d | c4 z4 | z8 | z8 | z8 | A2 c2 f3 =B | d3 _B ^G2 A2 | d3 c _B2 G2 | d3 c _B4 | %47
w: * * nen, * grü- nen|Fluss.||||Wird sie von den|Ber- gen stei- gen|end- lich in das|Nie- der- land?|
 A2 c2 f3 =B | c2 _e2 _a3 d | f2 _e2 _d3 d | _c3 c _B4 | z2 =c2 _d2 d2 | z2 f2 (g2 f2- | %53
w: Wird sich mir die|Son- ne zei- gen,|die zu lan- ge|schon ver- schwand?|zu lan- ge,|zu lang *|
 f2 =d4) c2 | =B2 z2 z4 | z8 | G3 G d3 d | (eg) (fe) e2 G2 | d3 d f3 d | (fd) (fg) e4 | %60
w: * * ver-|schwand?||Vö- gel, Brie- fe,|Lie- * bes- * bo- ten,|Lied und Seuf- zer,|sagt * ihr's * hell:|
 ^c3 c e3 e | (eg) (fe) g2 f2 | f3 d f3 d | (fd) (c_B) B4 | d3 d (g4- | gf) (cf) e3 d | c4 z4 | %67
w: Su- che ihn im|Reich * der * To- ten,|Lieb- chen, o- der|kom- * me * schnell,|Lieb- chen, o-|* * der * kom- me|schnell.|
 z8 | z8 | z8 |] %70
w: |||
V:2
 (3(CEC(3G,[I:staff +1]E,G,)[I:staff -1] (3(EGE(3G,!<(![I:staff +1]E,G,) | %1
[I:staff -1] (3(GcG(3C[I:staff +1]G,C)[I:staff -1] (3(cec(3ECE)!<)! | (3(ege(3GEG) (3(cec(3ECE) | %3
 (3(ege(3GEG) (3(cec(3ECE) | (3(fgf(3GFG) (3(dfd(3FDF) | (3(fgf(3GFG) (3(cec(3ECE) | %6
 (3(ege(3GEG) (3(cec(3ECE) | (3(ege(3GEG) (3(c^fc(3^FcF) | (3(dgd(3GdG) (3(_ege(3Ge!<(!G) | %9
 (3(f_b!mp!f(3_BfB) (3(gb!mf!g(3BgB)!<)! |!f! (3(g=bg(3=BgB) (3(gc'c(3e_b_B) | %11
 (3(caA(3c_a_A) (3(=BgG(3BfF) | (3(ceE!<(!(3egG!<)!!>(! (3_ec'c(3e!>)!^f^F) | %13
!>(! (3(daA(3daA (3B=f=F(3BfF)!>)! |!p!!>(! (3(c!mf!eE(3BdE)!>)!!p! (3(AcD(3^FAD) | %15
!mf!!>(! (3(ceE(3BdE)!>)!!p! (3(AcD(3^FAD) | (3(GBD(3GBD)!<(! (3(G^c^C(3GcC)!<)! | %17
!>(! (3A=c=C(3AcC!>)!!p! (3GBD(3GBD |!mf!!>(! (3d=fF(3ceF (3B!>)!!p!dE(3^GBE | %19
!mf!!>(! (3AcC(3=GBC!>)!!p! (3^FAB,(3^DFB, | (3EGB,(3EGB, (3E^A^A,(3EAA, | %21
!<(! (3^F=A=A,(3FA^D!<)!!f! (3GeE(3EcC | (3CGG,(3CEG, (3GcC(3EcC | %23
[I:staff +1] (3([A,,,A,,]C,F,(3A,[I:staff -1]C=F c) z [A,^DA]2 | %24
!f! (3(E^GE(3^G,[I:staff +1]E,^G,)[I:staff -1] (3(GBG(3B,[I:staff +1]G,B,) | %25
[I:staff -1] (3(BeB(3E[I:staff +1]B,E)[I:staff -1] (3(E=GE(3=G,[I:staff +1]E,=G,) | %26
!<(![I:staff -1] (3(GBG(3B,[I:staff +1]G,B,)[I:staff -1] (3(BeB(3E[I:staff +1]B,E)!<)! | %27
!ff!!f![I:staff -1] (3(e!>(!ge(3G[I:staff +1]EG)[I:staff -1] (3(ege(3G[I:staff +1]E!>)!G) | %28
!f!!>(![I:staff -1] (3(ege(3G[I:staff +1]EG)[I:staff -1] (3(ege(3G[I:staff +1]EG)!>)! | %29
[I:staff -1] (3([ce]g[ce](3G[I:staff +1][CE]G)[I:staff -1] (3([Gc]e[Gc](3E[I:staff +1][G,C]E) | %30
[I:staff -1] (3([ce]g[ce](3G[I:staff +1][CE]G)[I:staff -1] (3([Gc]e[Gc](3E[I:staff +1][G,C]E) | %31
[I:staff -1] (3([df]g[df](3G[I:staff +1][B,F]G)[I:staff -1] (3([Bd]f[Bd](3F[I:staff +1][G,D]F) | %32
[I:staff -1] (3([df]g[df](3G[I:staff +1][B,F]G)[I:staff -1] (3([ce]g[ce](3G[I:staff +1][CE]G) | %33
[I:staff -1] (3([ce]g[ce](3G[I:staff +1][CE]G)[I:staff -1] (3([Gc]e[Gc](3E[I:staff +1][G,C]E) | %34
[I:staff -1] (3([ce]g[ce](3G[I:staff +1][CE]G)[I:staff -1] (3([c^f]a[cf](3A[I:staff +1][C^F]A) | %35
[I:staff -1] (3(GdG(3D[I:staff +1][G,B,]D)!<(![I:staff -1] (3(G_eG(3_E[I:staff +1][G,C]_E) | %36
!mp![I:staff -1] (3(_BfB(3F[I:staff +1][_B,D]F)[I:staff -1] (3(BgB(3G[I:staff +1][B,_E]G)!<)! | %37
!mf![I:staff -1] (3[dg]=b=B(3[Bd]gG (3gc'c(3e_b_B | (3caA(3c_a_A (3BgG(3BfF | %39
 (3(ceE(3e!<(!gG (3_e!<)!!>(!c'c(3e!>)!^f^F) | (3(daA(3d=fG (3B^dG(3ceG) | %41
 (3(daA(3dfG!>(! (3B^dG(3ceG) | (3(_B^cF(3BdF (3G=BC(3_B=c!>)!C) | %43
!p![I:staff +1] (3(F,,C,F,[I:staff -1](3A,CA)[I:staff +1] (3(D,,=B,,D,[I:staff -1](3_A,F_A) | %44
[I:staff +1] (3(E,,C,E,[I:staff -1](3G,_B,G)[I:staff +1] (3(F,,C,F,[I:staff -1](3A,CF) | %45
!mf!!>(! (3^FAD(3FAD (3G!>)!!p!_BC(3EGC |!mf!!>(! (3^FAD(3FAD (3G!>)!!p!_BC(3EGC | %47
[I:staff +1] (3(F,,C,F,[I:staff -1](3A,CA)[I:staff +1] (3(D,,=B,,D,[I:staff -1](3_A,F_A) | %48
!<(![I:staff +1] (3(_E,,C,_E,[I:staff -1](3_A,C_A)[I:staff +1] (3(_F,,_C,_F,[I:staff -1](3A,=DA)!<)! | %49
!f! (3=Ac_E(3AcE (3_B_dG(3BdG | (3_A=dF(3AdF (3G_e_E(3GeE |!>(! (3cfF(3c_eF!mf! (3_B!>)!_dF(3BdF | %52
 (3FcC(3FcC (3G=B!<(!=B,(3BdD | (3GdD(3dfF!<)! (3BfF(3A^f^F | ([GBg]2 [Gd=f]4 [Bd]2) | %55
!>(! ([Bg]2 [df]4 [B^d]2)!>)! | ([ce]3 [ce] [Gdg]3 g)!p! | ([cc'][ee'][dd'][cc'] [cc']2 e2) | %58
 ([Gg]3 g [dd']3 g | [dd']g[dd'][ee'] [cc']4) | ([A^ce]3 [Ace] [Beb]3 [Beb] | %61
 [^c^c'][ee'][dd'][cc'] [ee']2 [dd']2) |!<(! ([dd']2 _a2) ([dd']2 g2) | %63
 ([dd']2 [_A_a]2) ([Gg]2 [_B_b]2)!<)! |!f! (3(g=b=B)(3(BgG) (3(gc'c(3e_b_B) | %65
 (3caA(3c_a_A (3=BgG(3BfF |!f! (3ceE(3egG (3_ec'c(3e^f^F | (3(caA(3c_a_A (3caA(3_BgG | %68
 (3_BgG(3=BgG (3B)fG(3dFB | [Ec]2 z2!f! [cec']4 |] %70
V:3
 x8 | x8 | (C,[G,C])!p! z ([G,C] C,G,) z (G, | C,[G,C]) z ([G,C] C,G,) z (G, | %4
 C,[G,B,]) z ([G,B,] C,G,) z (G, | C,[G,B,]) z ([G,B,] C,G,) z (G, | %6
 C,[G,C]) z ([G,C] C,G,) z (G, | C,[G,C]) z ([G,C] A,,A,) z (A, | B,,G,) z (G, C,C) z!p! (C | %9
 D,_B,) z (B, _E,_E) z (E | F,D) (F,,F,) (=E,,=E,C,,C,) | (F,,F,D,,D,) [G,,G,]4 | %12
!mf! (C,,C,) z (C, A,,,A,,) z!mf! A,, | (B,,,B,,) z2 (B,,,G,,) z2 | .C,2 .[A,C]2 .D,2 .[A,C]2 | %15
 .C,2 .[A,C]2 .D,2 .[A,C]2 | .G,,2 .[G,B,]2 .E,,2 .[E,G,]2 |!mf! .^F,,2 .[^F,A,]2 .G,,2 .[G,B,]2 | %18
 D,,2 [=F,A,]2 E,,2 [E,^G,]2 | A,,,2 [E,A,]2 B,,,2 [^F,A,]2 | E,,2 [E,G,]2 ^C,,2 [E,G,]2 | %21
 [^D,,^D,]2 [B,,,B,,]2 ([C,C]2 [G,,G,]2 | [E,,E,]2 [C,,C,]2 [B,,,B,,]2 [_B,,,_B,,]2) | %23
 x4 z2 [B,,,B,,]2 | E,,2 x2 x4 | x8 | x8 | x8 | x8 |!p! C,2 x2 C,2 x2 | C,2 x2 C,2 x2 | %31
 C,2 x2 C,2 x2 | C,2 x2 C,2 x2 | C,2 x2 C,2 x2 | C,2 x2 A,,2 x2 | B,,2 x2 C,2 x2 | D,2 x2 _E,2 x2 | %37
 [F,F]2 [F,,F,]2 [=E,,=E,]2 [C,,C,]2 | [F,,F,]2 [D,,D,]2 [G,,G,]2 [G,,,G,,]2 | %39
!f! (C,,C,) z (C, A,,,A,,) z!mf! (A,, | B,,,B,,) z (B,, C,,C,) z2 | ([B,,,B,,]4 [C,,C,]4 | %42
 [D,,D,]4 [E,,E,]4) | x8 | x8 | [_B,,,_B,,]2 [^F,A,]2 [C,,C,]2 [G,_B,]2 | %46
 [_B,,,_B,,]2 [^F,A,]2 [C,,C,]2 [G,_B,]2 | x8 | x8 | _E,,2 [_E,=A,C]2 E,,2 [E,_B,_D]2 | %50
 _E,,2 [_E,_A,_C]2 E,,2 [E,G,_B,]2 | [=A,,,=A,,]2 [F,C]2 [_B,,,_B,,]2 [F,_B,]2 | %52
 [_A,,,_A,,]2 [C,F,]2 [G,,,G,,]4 | [B,,,B,,]4!f! [D,,D,]4 | %54
 (3G,,G,D,(3B,,B,G,!>(! (3D,DB,(3F,FD!>)! | (3G,FD(3B,GF (3DGF(3G,GF | %56
 (3C,EC(3G,"_1"C"_2"G, (3C,FB,(3G,"_1"B,"_2"G, | (3C,EC(3G,CG, (3C,EC(3G,CG, | %58
 (3C,FB,(3G,B,G, (3C,FB,(3G,B,G, | (3C,FB,(3G,B,G, (3C,EC(3G,CG, | %60
 (3A,,^CA,(3E,A,E, (3A,,D^G,(3E,G,E, | (3A,,^CA,(3E,A,E, (3D,CA,(3D,DA, | %62
 (3=C,D_A,(3F,A,F, (3B,,DG,(3D,G,D, | (3_B,,D_A,(3F,A,F, (3_E,_E_B,(3G,B,G, | %64
 (F,F) (F,,F,) (=E,,=E,C,,C,) | (F,,F,D,,D,) [G,,G,]2 [G,,,G,,]2 | %66
 [C,,C,]2 [E,G,C]2 [A,,,A,,]2 [_E,^F,C]2 | [G,,,G,,]2 [=E,G,C]4 [G,^CE]2- | %68
 [G,CE]2 [G,DF]4 [G,,D,F,G,]2 | [C,E,G,]2!ped! [C,,,C,,]2 !arpeggio![C,E,G,CE]4!ped-up! |] %70

